packages/ffe-icons/icons/open/400/sm/list_alt.svg

<svg xmlns="http://www.w3.org/2000/svg" height="20" viewBox="0 -960 960 960" width="20"><path d="M323.79-288q15.21 0 25.71-10.29t10.5-25.5q0-15.21-10.29-25.71t-25.5-10.5q-15.21 0-25.71 10.29t-10.5 25.5q0 15.21 10.29 25.71t25.5 10.5Zm0-156q15.21 0 25.71-10.29t10.5-25.5q0-15.21-10.29-25.71t-25.5-10.5q-15.21 0-25.71 10.29t-10.5 25.5q0 15.21 10.29 25.71t25.5 10.5Zm0-156q15.21 0 25.71-10.29t10.5-25.5q0-15.21-10.29-25.71t-25.5-10.5q-15.21 0-25.71 10.29t-10.5 25.5q0 15.21 10.29 25.71t25.5 10.5ZM468-288h168q15.3 0 25.65-10.29Q672-308.58 672-323.79t-10.35-25.71Q651.3-360 636-360H468q-15.3 0-25.65 10.29Q432-339.42 432-324.21t10.35 25.71Q452.7-288 468-288Zm0-156h168q15.3 0 25.65-10.29Q672-464.58 672-479.79t-10.35-25.71Q651.3-516 636-516H468q-15.3 0-25.65 10.29Q432-495.42 432-480.21t10.35 25.71Q452.7-444 468-444Zm0-156h168q15.3 0 25.65-10.29Q672-620.58 672-635.79t-10.35-25.71Q651.3-672 636-672H468q-15.3 0-25.65 10.29Q432-651.42 432-636.21t10.35 25.71Q452.7-600 468-600ZM216-144q-29.7 0-50.85-21.15Q144-186.3 144-216v-528q0-29.7 21.15-50.85Q186.3-816 216-816h528q29.7 0 50.85 21.15Q816-773.7 816-744v528q0 29.7-21.15 50.85Q773.7-144 744-144H216Zm0-72h528v-528H216v528Zm0-528v528-528Z"/></svg>

<svg xmlns="http://www.w3.org/2000/svg" height="20" viewBox="0 -960 960 960" width="20"><path d="M323.789-288Q339-288 349.5-298.289q10.5-10.29 10.5-25.5Q360-339 349.711-349.5q-10.29-10.5-25.5-10.5Q309-360 298.5-349.711q-10.5 10.29-10.5 25.5Q288-309 298.289-298.5q10.29 10.5 25.5 10.5Zm0-156Q339-444 349.5-454.289q10.5-10.29 10.5-25.5Q360-495 349.711-505.5q-10.29-10.5-25.5-10.5Q309-516 298.5-505.711q-10.5 10.29-10.5 25.5Q288-465 298.289-454.5q10.29 10.5 25.5 10.5Zm0-156Q339-600 349.5-610.289q10.5-10.29 10.5-25.5Q360-651 349.711-661.5q-10.29-10.5-25.5-10.5Q309-672 298.5-661.711q-10.5 10.29-10.5 25.5Q288-621 298.289-610.5q10.29 10.5 25.5 10.5ZM468-288h168q15.3 0 25.65-10.289 10.35-10.29 10.35-25.5Q672-339 661.65-349.5 651.3-360 636-360H468q-15.3 0-25.65 10.289-10.35 10.29-10.35 25.5Q432-309 442.35-298.5 452.7-288 468-288Zm0-156h168q15.3 0 25.65-10.289 10.35-10.29 10.35-25.5Q672-495 661.65-505.5 651.3-516 636-516H468q-15.3 0-25.65 10.289-10.35 10.29-10.35 25.5Q432-465 442.35-454.5 452.7-444 468-444Zm0-156h168q15.3 0 25.65-10.289 10.35-10.29 10.35-25.5Q672-651 661.65-661.5 651.3-672 636-672H468q-15.3 0-25.65 10.289-10.35 10.29-10.35 25.5Q432-621 442.35-610.5 452.7-600 468-600ZM216-144q-29.7 0-50.85-21.15Q144-186.3 144-216v-528q0-29.7 21.15-50.85Q186.3-816 216-816h528q29.7 0 50.85 21.15Q816-773.7 816-744v528q0 29.7-21.15 50.85Q773.7-144 744-144H216Zm0-72h528v-528H216v528Zm0-528v528-528Z"/></svg>
